!!!COM: Anon.
!!!OCL: Francis James Child
!!!OPR: The English and Scottish Popular Ballads
!!!OVM: Vol. 1
!!!ONB: Ballad No. 49, Tune No. 2
!!!ONM: No. 49
!!!PDT: 1882
!!!YEM: Public domain.
**kern
*M3/2
*G:
{8d
8d
=1
4g
4g
4g
2a
8.f#
16f#
=2
8g
8g
4e
2d}
!! Second phrase:
{4.g
8a
=3
4b
8cc
8b
2a
2f#
=4
[2g
4g]}
!! Third phrase:
{8.a
16a
8b
8b
4g
=5
[2a
4a]
8f#
8f#
4g
4e
=6
*M3/4
2d}
!! Fourth phrase:
{4g
=7
4e
4f#
4g
=8
2a
4f#
=9
2g}
====
*-
!!!OCY: Britain; England
!!!PPP: Boston
!!!ODT: <1882
!!!AFR: folk song
!!!AST: monophony
!!!AMT: irregular
!!!SCA: Child Collection
!!!AIN: vox
!!!EEV: 1.0
!!!RDT: 1987 June
!!!YER: 1994 August 10
!!!VTS: 652652838
